packages/ffe-icons/icons/filled/sm/equalizer.svg

<svg xmlns="http://www.w3.org/2000/svg" height="20" viewBox="0 -960 960 960" width="20"><path d="M273.788-212.001q-25.941 0-43.864-18.099t-17.923-43.989v-120.328q0-25.889 18.136-43.812 18.135-17.923 44.076-17.923t43.864 18.099Q336-419.955 336-394.065v120.328q0 25.89-18.135 43.813-18.135 17.923-44.077 17.923Zm206 0q-25.942 0-43.864-18.085-17.923-18.085-17.923-43.955v-412.242q0-25.87 18.135-43.793t44.076-17.923q25.942 0 43.864 18.085 17.923 18.085 17.923 43.955v412.242q0 25.87-18.135 43.793t-44.076 17.923Zm205.999 0q-25.941 0-43.864-18.073T624-274.001v-223.845q0-25.853 18.135-43.926 18.136-18.073 44.077-18.073t43.864 18.073q17.923 18.073 17.923 43.926v223.845q0 25.854-18.136 43.927-18.135 18.073-44.076 18.073Z"/></svg>

<svg xmlns="http://www.w3.org/2000/svg" height="20" viewBox="0 -960 960 960" width="20"><path d="M273.79-212q-25.94 0-43.87-18.1Q212-248.2 212-274.09v-120.33q0-25.89 18.14-43.81 18.13-17.92 44.07-17.92t43.87 18.1Q336-419.95 336-394.06v120.32q0 25.89-18.14 43.82Q299.73-212 273.79-212Zm206 0q-25.94 0-43.87-18.09Q418-248.17 418-274.04v-412.24q0-25.87 18.14-43.8Q454.27-748 480.21-748t43.87 18.09Q542-711.83 542-685.96v412.24q0 25.87-18.14 43.8Q505.73-212 479.79-212Zm206 0q-25.94 0-43.87-18.07Q624-248.15 624-274v-223.85q0-25.85 18.14-43.92 18.13-18.07 44.07-18.07t43.87 18.07Q748-523.7 748-497.85V-274q0 25.85-18.14 43.93Q711.73-212 685.79-212Z"/></svg>
